X:511
T:Pull Out the Knife and Stick It In Again
T:Pull the Knife and Stick It Again
R:jig
H:Usually played in Edor, #49
H:Related to "Castle Kelly", reel#118
D:Dervish: Spirit
Z:id:hn-jig-511
M:6/8
K:Bdor
~B3 dcB | AFB AFA | ~B3 dcB | efd edc |
~B3 dcB | AFB ABc | d2B cBA |1 FBA B2A :|2 FBA B3 ||
|: baf fec | BAF A2a | baf fec | efg ~a3 |
baf fec | BAF ABc | d2B cBA |1 FBA B3 :|2 FBA B2A ||

